X: 56
T:Raughton Head. WI.056
M:C
Q:160
C:"A Hornpipe, by J.Adams"
S:Wm Irwin, Folio MS, c1850. AGG's Transcription
R:Hornpipe
O:England
A:Lake District
Z:vmp.Chris Partington.2005
K:Bb
((3FGA)|BABF DFBF|dBfd Bdfd|ecge Agec|AecA FAcA|!
BABF DFBF|dBfd Bbfd|cgec AecA|B2d2 B2||!
de|f=efd Bdfb|gebg "qu's"d/e/gbg|fdbf dfBd|ceAc FecA|!
BABF DFBF|dBfd Bbfd|cgec AecA|B2d2 B2|]
W:A Quadrille(6/8) taken from the above, by Wm. Robinson
